X:70
T: Emigrant's (The)
T: Emigrant's Farewell (< Ted Furey)
S: "Collection of the Dance Music of Ireland" (P. McNulty)
Z: B.Black
L: 1/8
M: 9/8
R: slip jig
K: Edor
edB B2 A G2 A|Bdd d2 B def|edB B2 A G2 E|E2 e e2 d efg|
edB B2 A G2 A|Bdd d2 B def|e2 f gfe fed|Bee e2 d e3 :|
e2 f gfe fed|BAB d2 B def|e2 f gfe fed|Bee e2 d efg|
agf gfe fed|BAB d2 B def|edB B2 A G2 E|E2 e e2 d efg :|
